!!!OTL: "Vergebliche Hoffnung" ACH ACH DASS GOTT ERBARM
!!!ARE: Europa, Mitteleuropa, Deutschland, Westfalen
!!!SCT: Z1326
!!!YEM: Copyright 1995, estate of Helmut Schaffrath.
**kern
*ICvox
*Ivox
*M6/8
*k[b-]
*F:
{16f
16g
=1
8a
16a
16b-
16a
16g
4f
16a
16b-
=2
8cc
16cc
16dd
16cc
16b-
4a}
{16a
16b-
=3
4cc
8cc
8dd
8dd
8cc
=4
8cc
8b-
8b-
4a}
{8cc
=5
8cc
8dd
8ee
4ff
16a
16a
=6
8g
8a
8b-
4cc}
{8a
=7
8f
8g
8a
8cc
8b-
8a
=8
8g
8f
8g
4f}
==
!!!AGN: Zech -, Schalks - Lied, Liebes - Lied
!!!ONB: ESAC (Essen Associative Code) Database: ZUCCAL
!!!AMT: compound duple
!!!AIN: vox
!!!EED: Helmut Schaffrath
!!!EEV: 1.0
*-
